src/assets/images/450.svg

<svg width="209" height="30" viewBox="0 0 209 30" fill="none" xmlns="http://www.w3.org/2000/svg">
<path d="M1.125 18.1328L3.375 17.0547C3.84375 17.8047 4.4375 18.3906 5.15625 18.8125C5.89062 19.2344 6.67969 19.4453 7.52344 19.4453C8.32031 19.4453 8.99219 19.2266 9.53906 18.7891C10.0859 18.3516 10.3594 17.7266 10.3594 16.9141C10.3594 16.4922 10.2812 16.1328 10.125 15.8359C9.96875 15.5234 9.69531 15.2422 9.30469 14.9922C8.92969 14.7422 8.5625 14.5391 8.20312 14.3828C7.84375 14.2109 7.3125 13.9766 6.60938 13.6797C5.92188 13.3828 5.33594 13.1172 4.85156 12.8828C2.75781 11.8672 1.71094 10.3516 1.71094 8.33594C1.71094 7.30469 2.07031 6.32813 2.78906 5.40625C3.52344 4.46875 4.60156 3.875 6.02344 3.625V1.58594H8.83594V3.67188C9.74219 3.76562 10.6016 4.14844 11.4141 4.82031C12.2422 5.47656 12.8203 6.17969 13.1484 6.92969L10.8516 8.03125C9.96094 6.70313 8.82031 6.03906 7.42969 6.03906C6.63281 6.03906 5.98438 6.25781 5.48438 6.69531C5 7.13281 4.75781 7.6875 4.75781 8.35938C4.75781 8.625 4.78906 8.86719 4.85156 9.08594C4.91406 9.30469 5.03125 9.50781 5.20312 9.69531C5.375 9.86719 5.53906 10.0234 5.69531 10.1641C5.86719 10.2891 6.125 10.4375 6.46875 10.6094C6.8125 10.7656 7.10156 10.8984 7.33594 11.0078C7.57031 11.1016 7.92969 11.25 8.41406 11.4531C8.91406 11.6562 9.32031 11.8203 9.63281 11.9453C12.1797 13.0234 13.4531 14.5938 13.4531 16.6562C13.4531 18.0625 13.0234 19.2266 12.1641 20.1484C11.3203 21.0547 10.2109 21.6328 8.83594 21.8828V23.8047H6.02344V21.8359C5.07031 21.7422 4.125 21.3438 3.1875 20.6406C2.25 19.9219 1.5625 19.0859 1.125 18.1328ZM15.2109 15.6484L23.3672 3.29688H26.0156V15.6016H28.3125V18.1328H26.0156V22.1641H22.9688V18.1328H15.2109V15.6484ZM18.1172 15.6016H22.9688V10.3984C22.9688 9.55469 23 8.73438 23.0625 7.9375H22.9453C22.6016 8.53125 22.1797 9.24219 21.6797 10.0703L18.1172 15.6016ZM29.6953 18.5547L32.25 17.6406C32.5312 18.2969 32.9453 18.8359 33.4922 19.2578C34.0391 19.6797 34.6406 19.8906 35.2969 19.8906C36.2812 19.8906 37.0547 19.5625 37.6172 18.9062C38.1953 18.2344 38.4844 17.3438 38.4844 16.2344C38.4844 15.1562 38.1797 14.2734 37.5703 13.5859C36.9609 12.8984 36.1875 12.5547 35.25 12.5547C34.0938 12.5547 33.0859 13.1172 32.2266 14.2422L30.2812 13.4922L31.2656 3.46094H40.6406V6.01562H34.1016L33.5391 10.8672C34.3047 10.3203 35.2344 10.0469 36.3281 10.0469C37.9062 10.0469 39.1875 10.6016 40.1719 11.7109C41.1562 12.8047 41.6484 14.2891 41.6484 16.1641C41.6484 16.9609 41.5234 17.7188 41.2734 18.4375C41.0391 19.1562 40.6797 19.8203 40.1953 20.4297C39.7266 21.0391 39.0781 21.5234 38.25 21.8828C37.4219 22.2422 36.4766 22.4219 35.4141 22.4219C33.9922 22.4219 32.8047 22.0703 31.8516 21.3672C30.8984 20.6484 30.1797 19.7109 29.6953 18.5547ZM46.9453 12.7422C46.9453 17.5078 47.9219 19.8906 49.875 19.8906C50.4219 19.8906 50.8828 19.6953 51.2578 19.3047C51.6484 18.8984 51.9453 18.3516 52.1484 17.6641C52.3672 16.9609 52.5234 16.2109 52.6172 15.4141C52.7109 14.6016 52.7578 13.7109 52.7578 12.7422C52.7578 11.7578 52.7109 10.8594 52.6172 10.0469C52.5234 9.21875 52.3672 8.46094 52.1484 7.77344C51.9297 7.08594 51.625 6.54687 51.2344 6.15625C50.8438 5.76563 50.3828 5.57031 49.8516 5.57031C47.9141 5.57031 46.9453 7.96094 46.9453 12.7422ZM43.7578 12.7422C43.7578 10.9141 43.9375 9.33594 44.2969 8.00781C44.6719 6.67969 45.1719 5.67188 45.7969 4.98438C46.4219 4.29687 47.0625 3.80469 47.7188 3.50781C48.3906 3.19531 49.1016 3.03906 49.8516 3.03906C51.8047 3.03906 53.3047 3.89063 54.3516 5.59375C55.4141 7.29687 55.9453 9.67969 55.9453 12.7422C55.9453 15.7109 55.4219 18.0703 54.375 19.8203C53.3438 21.5703 51.8438 22.4453 49.875 22.4453C49.1562 22.4453 48.4609 22.2969 47.7891 22C47.1328 21.7031 46.4844 21.2188 45.8438 20.5469C45.2188 19.8594 44.7109 18.8516 44.3203 17.5234C43.9453 16.1797 43.7578 14.5859 43.7578 12.7422ZM59.3672 22V18.3906H63.3047V22H59.3672ZM69.8906 12.7422C69.8906 17.5078 70.8672 19.8906 72.8203 19.8906C73.3672 19.8906 73.8281 19.6953 74.2031 19.3047C74.5938 18.8984 74.8906 18.3516 75.0938 17.6641C75.3125 16.9609 75.4688 16.2109 75.5625 15.4141C75.6562 14.6016 75.7031 13.7109 75.7031 12.7422C75.7031 11.7578 75.6562 10.8594 75.5625 10.0469C75.4688 9.21875 75.3125 8.46094 75.0938 7.77344C74.875 7.08594 74.5703 6.54687 74.1797 6.15625C73.7891 5.76563 73.3281 5.57031 72.7969 5.57031C70.8594 5.57031 69.8906 7.96094 69.8906 12.7422ZM66.7031 12.7422C66.7031 10.9141 66.8828 9.33594 67.2422 8.00781C67.6172 6.67969 68.1172 5.67188 68.7422 4.98438C69.3672 4.29687 70.0078 3.80469 70.6641 3.50781C71.3359 3.19531 72.0469 3.03906 72.7969 3.03906C74.75 3.03906 76.25 3.89063 77.2969 5.59375C78.3594 7.29687 78.8906 9.67969 78.8906 12.7422C78.8906 15.7109 78.3672 18.0703 77.3203 19.8203C76.2891 21.5703 74.7891 22.4453 72.8203 22.4453C72.1016 22.4453 71.4062 22.2969 70.7344 22C70.0781 21.7031 69.4297 21.2188 68.7891 20.5469C68.1641 19.8594 67.6562 18.8516 67.2656 17.5234C66.8906 16.1797 66.7031 14.5859 66.7031 12.7422ZM83.9531 12.7422C83.9531 17.5078 84.9297 19.8906 86.8828 19.8906C87.4297 19.8906 87.8906 19.6953 88.2656 19.3047C88.6562 18.8984 88.9531 18.3516 89.1562 17.6641C89.375 16.9609 89.5312 16.2109 89.625 15.4141C89.7188 14.6016 89.7656 13.7109 89.7656 12.7422C89.7656 11.7578 89.7188 10.8594 89.625 10.0469C89.5312 9.21875 89.375 8.46094 89.1562 7.77344C88.9375 7.08594 88.6328 6.54687 88.2422 6.15625C87.8516 5.76563 87.3906 5.57031 86.8594 5.57031C84.9219 5.57031 83.9531 7.96094 83.9531 12.7422ZM80.7656 12.7422C80.7656 10.9141 80.9453 9.33594 81.3047 8.00781C81.6797 6.67969 82.1797 5.67188 82.8047 4.98438C83.4297 4.29687 84.0703 3.80469 84.7266 3.50781C85.3984 3.19531 86.1094 3.03906 86.8594 3.03906C88.8125 3.03906 90.3125 3.89063 91.3594 5.59375C92.4219 7.29687 92.9531 9.67969 92.9531 12.7422C92.9531 15.7109 92.4297 18.0703 91.3828 19.8203C90.3516 21.5703 88.8516 22.4453 86.8828 22.4453C86.1641 22.4453 85.4688 22.2969 84.7969 22C84.1406 21.7031 83.4922 21.2188 82.8516 20.5469C82.2266 19.8594 81.7188 18.8516 81.3281 17.5234C80.9531 16.1797 80.7656 14.5859 80.7656 12.7422ZM93.5156 23.3594L100.664 2.26562H103.781L96.6328 23.3594H93.5156ZM104.086 18.25L106.57 17.3359C107.305 19.0391 108.492 19.8906 110.133 19.8906C111.023 19.8906 111.773 19.6172 112.383 19.0703C112.992 18.5078 113.297 17.7188 113.297 16.7031C113.297 15.7812 112.961 15.0312 112.289 14.4531C111.617 13.875 110.766 13.5859 109.734 13.5859C109.172 13.5859 108.609 13.6172 108.047 13.6797V11.1484C108.453 11.1797 108.984 11.1953 109.641 11.1953C110.469 11.1953 111.172 10.9375 111.75 10.4219C112.344 9.90625 112.641 9.19531 112.641 8.28906C112.641 7.49219 112.391 6.84375 111.891 6.34375C111.391 5.82812 110.758 5.57031 109.992 5.57031C108.648 5.57031 107.664 6.46094 107.039 8.24219L104.508 7.44531C104.836 6.14844 105.492 5.09375 106.477 4.28125C107.477 3.45312 108.711 3.03906 110.18 3.03906C111.898 3.03906 113.266 3.50781 114.281 4.44531C115.297 5.36719 115.805 6.54687 115.805 7.98438C115.805 8.9375 115.555 9.78906 115.055 10.5391C114.57 11.2891 113.969 11.8516 113.25 12.2266C114.109 12.5234 114.859 13.0547 115.5 13.8203C116.156 14.5703 116.484 15.5312 116.484 16.7031C116.484 18.5 115.906 19.9062 114.75 20.9219C113.609 21.9219 112.078 22.4219 110.156 22.4219C108.609 22.4219 107.297 22.0156 106.219 21.2031C105.156 20.3906 104.445 19.4062 104.086 18.25ZM124.922 22V8.47656H127.805V10.0469C128.039 9.59375 128.461 9.14844 129.07 8.71094C129.68 8.27344 130.414 8.05469 131.273 8.05469C132.758 8.05469 133.852 8.85938 134.555 10.4688C134.664 10.25 134.805 10.0312 134.977 9.8125C135.164 9.59375 135.414 9.33594 135.727 9.03906C136.055 8.74219 136.469 8.50781 136.969 8.33594C137.484 8.14844 138.039 8.05469 138.633 8.05469C141.398 8.05469 142.781 9.80469 142.781 13.3047V22H139.781V13.3984C139.781 12.4609 139.648 11.7578 139.383 11.2891C139.117 10.8203 138.648 10.5859 137.977 10.5859C137.18 10.5859 136.531 10.9219 136.031 11.5938C135.547 12.25 135.305 13.0625 135.305 14.0312V22H132.375V13.3281C132.375 11.5 131.766 10.5859 130.547 10.5859C129.703 10.5859 129.047 10.8984 128.578 11.5234C128.125 12.1484 127.898 12.9688 127.898 13.9844V22H124.922ZM148.102 15.25C148.102 16.8125 148.422 17.9766 149.062 18.7422C149.703 19.5078 150.453 19.8906 151.312 19.8906C152.156 19.8906 152.898 19.5078 153.539 18.7422C154.18 17.9766 154.5 16.8125 154.5 15.25C154.5 13.6562 154.18 12.4844 153.539 11.7344C152.898 10.9688 152.156 10.5859 151.312 10.5859C150.469 10.5859 149.719 10.9688 149.062 11.7344C148.422 12.4844 148.102 13.6562 148.102 15.25ZM145.055 15.25C145.055 13.2344 145.586 11.5312 146.648 10.1406C147.711 8.75 149.266 8.05469 151.312 8.05469C153.344 8.05469 154.891 8.75 155.953 10.1406C157.016 11.5312 157.547 13.2344 157.547 15.25C157.547 15.875 157.484 16.5 157.359 17.125C157.25 17.75 157.047 18.3906 156.75 19.0469C156.453 19.6875 156.078 20.2578 155.625 20.7578C155.172 21.2422 154.57 21.6406 153.82 21.9531C153.086 22.2656 152.25 22.4219 151.312 22.4219C150.391 22.4219 149.555 22.2734 148.805 21.9766C148.07 21.6641 147.469 21.2734 147 20.8047C146.547 20.3203 146.164 19.7578 145.852 19.1172C145.555 18.4609 145.344 17.8203 145.219 17.1953C145.109 16.5547 145.055 15.9062 145.055 15.25ZM159.984 22V8.47656H162.867V10.1875H162.891C163.125 9.6875 163.555 9.21094 164.18 8.75781C164.82 8.28906 165.641 8.05469 166.641 8.05469C167.984 8.05469 169.055 8.46875 169.852 9.29688C170.648 10.125 171.047 11.4609 171.047 13.3047V22H168.07V13.7031C168.07 11.625 167.367 10.5859 165.961 10.5859C165.102 10.5859 164.383 10.9297 163.805 11.6172C163.242 12.3047 162.961 13.1562 162.961 14.1719V22H159.984ZM172.781 11.0078V8.47656H174.867V4.46875H177.82V8.47656H180.914V11.0078H177.82V17.6641C177.82 18.3047 177.945 18.7656 178.195 19.0469C178.461 19.3281 178.859 19.4688 179.391 19.4688H180.938V22H179.016C176.25 22 174.867 20.625 174.867 17.875V11.0078H172.781ZM183.398 22V2.85156H186.328V9.85938H186.398C186.758 9.34375 187.25 8.91406 187.875 8.57031C188.516 8.22656 189.188 8.05469 189.891 8.05469C191.188 8.05469 192.266 8.47656 193.125 9.32031C193.984 10.1484 194.414 11.4766 194.414 13.3047V22H191.461V13.6797C191.461 11.6172 190.758 10.5859 189.352 10.5859C188.492 10.5859 187.773 10.9531 187.195 11.6875C186.617 12.4219 186.328 13.2812 186.328 14.2656V22H183.398ZM196.477 19.1875L198.609 17.9453C199.547 19.3203 200.766 20.0078 202.266 20.0078C203 20.0078 203.578 19.8672 204 19.5859C204.438 19.2891 204.656 18.8984 204.656 18.4141C204.656 18.0234 204.477 17.6797 204.117 17.3828C203.773 17.0859 203.406 16.8672 203.016 16.7266C202.625 16.5703 202.039 16.3672 201.258 16.1172C201.117 16.0703 201.016 16.0391 200.953 16.0234C200.391 15.8359 199.914 15.6562 199.523 15.4844C199.148 15.2969 198.75 15.0547 198.328 14.7578C197.906 14.4453 197.586 14.0625 197.367 13.6094C197.148 13.1406 197.039 12.6016 197.039 11.9922C197.039 10.8047 197.539 9.85156 198.539 9.13281C199.539 8.41406 200.781 8.05469 202.266 8.05469C203.375 8.05469 204.422 8.35156 205.406 8.94531C206.391 9.52344 207.125 10.2656 207.609 11.1719L205.641 12.3672C204.719 11.1016 203.602 10.4688 202.289 10.4688C201.57 10.4688 201.016 10.6172 200.625 10.9141C200.25 11.1953 200.062 11.5703 200.062 12.0391C200.062 12.4297 200.227 12.7812 200.555 13.0938C200.898 13.3906 201.25 13.6094 201.609 13.75C201.969 13.8906 202.477 14.0703 203.133 14.2891C203.305 14.3359 203.43 14.375 203.508 14.4062C206.289 15.2969 207.68 16.6406 207.68 18.4375C207.68 19.5469 207.211 20.4922 206.273 21.2734C205.352 22.0391 204.039 22.4219 202.336 22.4219C201.023 22.4219 199.852 22.1328 198.82 21.5547C197.805 20.9766 197.023 20.1875 196.477 19.1875Z" fill="#FF0000"/>
<line x1="1.31134e-07" y1="13.5" x2="208" y2="13.5" stroke="#FF0000" stroke-width="3"/>
</svg>

<svg xmlns="http://www.w3.org/2000/svg" width="209" height="30" fill="none"><path fill="red" d="m1.125 18.133 2.25-1.078a5.2 5.2 0 0 0 1.781 1.758 4.7 4.7 0 0 0 2.367.632q1.196 0 2.016-.656.82-.655.82-1.875 0-.633-.234-1.078-.235-.47-.82-.844a7 7 0 0 0-1.102-.61q-.539-.256-1.594-.702a46 46 0 0 1-1.757-.797Q1.71 11.36 1.71 8.336q0-1.547 1.078-2.93Q3.891 4 6.023 3.625v-2.04h2.813v2.087q1.36.14 2.578 1.148 1.242.985 1.734 2.11L10.852 8.03Q9.515 6.04 7.43 6.04q-1.196 0-1.946.656-.726.656-.726 1.664 0 .399.094.727t.351.61q.258.256.492.468.258.188.774.445.515.235.867.399.351.14 1.078.445.75.305 1.219.492 3.82 1.617 3.82 4.711 0 2.11-1.289 3.492-1.266 1.36-3.328 1.735v1.922H6.023v-1.97q-1.43-.14-2.835-1.194-1.407-1.08-2.063-2.508m14.086-2.485 8.156-12.351h2.649v12.305h2.297v2.53h-2.297v4.032h-3.047v-4.031H15.21zm2.906-.046h4.852v-5.204q0-1.265.093-2.46h-.117q-.515.89-1.265 2.132zm11.578 2.953 2.555-.914a4 4 0 0 0 1.242 1.617q.82.633 1.805.633 1.477 0 2.32-.985.867-1.008.867-2.672 0-1.617-.914-2.648-.915-1.032-2.32-1.031-1.734 0-3.023 1.687l-1.946-.75.985-10.031h9.375v2.555H34.1l-.562 4.851q1.148-.82 2.79-.82 2.365 0 3.843 1.664 1.476 1.64 1.476 4.453a6.9 6.9 0 0 1-.375 2.273 6.3 6.3 0 0 1-1.078 1.993q-.703.914-1.945 1.453-1.242.54-2.836.539-2.133 0-3.562-1.055-1.43-1.078-2.157-2.812m17.25-5.813q0 7.149 2.93 7.149.82 0 1.383-.586.585-.61.89-1.64.329-1.056.47-2.25.14-1.22.14-2.673 0-1.476-.14-2.695a12 12 0 0 0-.47-2.274q-.327-1.03-.914-1.617a1.9 1.9 0 0 0-1.382-.586q-2.907 0-2.907 7.172m-3.187 0q0-2.742.539-4.734.563-1.992 1.5-3.024.938-1.031 1.922-1.476a5 5 0 0 1 2.133-.469q2.93 0 4.5 2.555 1.593 2.555 1.593 7.148 0 4.453-1.57 7.078-1.546 2.625-4.5 2.625A5.1 5.1 0 0 1 47.789 22q-.985-.445-1.945-1.453-.937-1.031-1.524-3.024-.562-2.015-.562-4.78M59.368 22v-3.61h3.937V22zm10.523-9.258q0 7.149 2.93 7.149.82 0 1.382-.586.586-.61.89-1.64.33-1.056.47-2.25.14-1.22.14-2.673 0-1.476-.14-2.695a12 12 0 0 0-.47-2.274q-.328-1.03-.913-1.617a1.9 1.9 0 0 0-1.383-.586q-2.907 0-2.906 7.172m-3.188 0q0-2.742.54-4.734.561-1.992 1.5-3.024.936-1.031 1.921-1.476a5 5 0 0 1 2.133-.469q2.93 0 4.5 2.555 1.593 2.555 1.594 7.148 0 4.453-1.57 7.078-1.548 2.625-4.5 2.625A5.1 5.1 0 0 1 70.733 22q-.984-.445-1.945-1.453-.938-1.031-1.523-3.024-.563-2.015-.563-4.78m17.25 0q0 7.149 2.93 7.149.82 0 1.383-.586.585-.61.89-1.64.328-1.056.469-2.25a23 23 0 0 0 .14-2.673q0-1.476-.14-2.695a12 12 0 0 0-.469-2.274q-.328-1.03-.914-1.617a1.9 1.9 0 0 0-1.383-.586q-2.906 0-2.906 7.172m-3.187 0q0-2.742.539-4.734.563-1.992 1.5-3.024.937-1.031 1.922-1.476a5 5 0 0 1 2.132-.469q2.931 0 4.5 2.555 1.594 2.555 1.594 7.148 0 4.453-1.57 7.078-1.547 2.625-4.5 2.625A5.1 5.1 0 0 1 84.797 22q-.985-.445-1.945-1.453-.937-1.031-1.524-3.024-.562-2.015-.562-4.78m12.75 10.617 7.148-21.093h3.117l-7.148 21.093zm10.57-5.109 2.484-.914q1.102 2.555 3.563 2.555 1.335 0 2.25-.82.914-.844.914-2.368 0-1.383-1.008-2.25-1.007-.867-2.555-.867-.843 0-1.687.094v-2.532q.609.048 1.594.047 1.242 0 2.109-.773.891-.774.891-2.133 0-1.195-.75-1.945-.75-.774-1.899-.774-2.016 0-2.953 2.672l-2.531-.797Q105 5.5 106.477 4.281q1.5-1.242 3.703-1.242 2.578 0 4.101 1.406 1.524 1.383 1.524 3.54 0 1.428-.75 2.554-.727 1.125-1.805 1.688 1.288.445 2.25 1.593.984 1.125.984 2.883 0 2.695-1.734 4.219-1.711 1.5-4.594 1.5-2.32 0-3.937-1.219-1.595-1.218-2.133-2.953M124.922 22V8.477h2.883v1.57q.351-.68 1.265-1.336.915-.657 2.203-.656 2.227 0 3.282 2.414.164-.329.422-.656.28-.33.75-.774.492-.445 1.242-.703a4.8 4.8 0 0 1 1.664-.281q4.148 0 4.148 5.25V22h-3v-8.602q0-1.405-.398-2.109-.4-.703-1.406-.703-1.196 0-1.946 1.008-.726.985-.726 2.437V22h-2.93v-8.672q0-2.742-1.828-2.742-1.266 0-1.969.937-.68.938-.68 2.461V22zm23.18-6.75q0 2.344.96 3.492.962 1.149 2.25 1.149 1.266 0 2.227-1.149.961-1.148.961-3.492 0-2.391-.961-3.516-.961-1.148-2.227-1.148-1.264 0-2.25 1.148-.96 1.125-.96 3.516m-3.047 0q0-3.024 1.593-5.11 1.595-2.085 4.664-2.085 3.048 0 4.641 2.086 1.594 2.085 1.594 5.109a9.5 9.5 0 0 1-.188 1.875 8 8 0 0 1-.609 1.922 6.8 6.8 0 0 1-1.125 1.71q-.68.728-1.805 1.196-1.101.47-2.508.469-1.382 0-2.507-.445-1.102-.47-1.805-1.172a6.8 6.8 0 0 1-1.148-1.688 9 9 0 0 1-.633-1.922q-.165-.96-.164-1.945M159.984 22V8.477h2.883v1.71h.024q.351-.75 1.289-1.43.96-.702 2.461-.702 2.015 0 3.211 1.242 1.194 1.242 1.195 4.008V22h-2.977v-8.297q0-3.117-2.109-3.117-1.289 0-2.156 1.031-.844 1.032-.844 2.555V22zm12.797-10.992V8.477h2.086V4.469h2.953v4.008h3.094v2.53h-3.094v6.657q0 .96.375 1.383.399.422 1.196.422h1.547V22h-1.922q-4.149 0-4.149-4.125v-6.867zM183.398 22V2.852h2.93v7.007h.07q.54-.773 1.477-1.289a4.2 4.2 0 0 1 2.016-.515q1.946 0 3.234 1.265 1.289 1.242 1.289 3.985V22h-2.953v-8.32q0-3.094-2.109-3.094-1.29 0-2.157 1.101-.867 1.102-.867 2.579V22zm13.079-2.812 2.132-1.243q1.407 2.063 3.657 2.063 1.101 0 1.734-.422.656-.446.656-1.172 0-.585-.539-1.031a3.5 3.5 0 0 0-1.101-.656q-.586-.235-1.758-.61a5 5 0 0 0-.305-.094 17 17 0 0 1-1.43-.539 9.4 9.4 0 0 1-1.195-.726 3.1 3.1 0 0 1-.961-1.149q-.328-.702-.328-1.617 0-1.78 1.5-2.86 1.5-1.077 3.727-1.077a6 6 0 0 1 3.14.89q1.477.867 2.203 2.227l-1.968 1.195q-1.383-1.898-3.352-1.898-1.078 0-1.664.445a1.34 1.34 0 0 0-.563 1.125q0 .585.493 1.055.515.445 1.054.656.54.21 1.524.54.258.07.375.116 4.172 1.336 4.172 4.031 0 1.665-1.407 2.836-1.382 1.149-3.937 1.149-1.969 0-3.516-.867a6 6 0 0 1-2.343-2.367"/><path stroke="red" stroke-width="3" d="M0 13.5h208"/></svg>
